melody-of-light/img/icons/icomoon/image.svg

<svg width="16" height="16" viewBox="0 0 16 16" fill="none" xmlns="http://www.w3.org/2000/svg">
<path fill-rule="evenodd" clip-rule="evenodd" d="M1.40039 4.66669C1.40039 2.86256 2.86293 1.40002 4.66706 1.40002H11.3337C13.1379 1.40002 14.6004 2.86256 14.6004 4.66669V11.3334C14.6004 13.1375 13.1379 14.6 11.3337 14.6H4.66706C2.86293 14.6 1.40039 13.1375 1.40039 11.3334V4.66669ZM4.66706 2.60002C3.52567 2.60002 2.60039 3.5253 2.60039 4.66669V11.3334C2.60039 12.4747 3.52567 13.4 4.66706 13.4H11.3337C12.4751 13.4 13.4004 12.4747 13.4004 11.3334V4.66669C13.4004 3.5253 12.4751 2.60002 11.3337 2.60002H4.66706Z" fill="#EC863D"/>
<path fill-rule="evenodd" clip-rule="evenodd" d="M5.99974 5.26665C5.59473 5.26665 5.26641 5.59498 5.26641 5.99998C5.26641 6.40499 5.59473 6.73332 5.99974 6.73332C6.40475 6.73332 6.73307 6.40499 6.73307 5.99998C6.73307 5.59497 6.40475 5.26665 5.99974 5.26665ZM4.06641 5.99998C4.06641 4.93223 4.93199 4.06665 5.99974 4.06665C7.06749 4.06665 7.93307 4.93223 7.93307 5.99998C7.93307 7.06773 7.06749 7.93332 5.99974 7.93332C4.93199 7.93332 4.06641 7.06773 4.06641 5.99998Z" fill="#EC863D"/>
<path fill-rule="evenodd" clip-rule="evenodd" d="M10.66 9.33183C10.3444 9.06887 9.87448 9.11634 9.61789 9.43708L9.17086 9.07945L9.61789 9.43708L8.55176 10.7697C7.93257 11.5437 6.82436 11.7158 5.99963 11.166C5.69282 10.9614 5.28054 11.0254 5.05018 11.3134L3.13431 13.7082L2.19727 12.9586L4.11314 10.5637C4.73234 9.78975 5.84055 9.61769 6.66527 10.1675C6.97209 10.3721 7.38437 10.308 7.61472 10.0201L8.68085 8.68744L9.14937 9.06226L8.68085 8.68744C9.35732 7.84186 10.5963 7.71672 11.4282 8.40996L14.3832 10.8725L13.615 11.7943L10.66 9.33183L11.0441 8.87089L10.66 9.33183Z" fill="#EC863D"/>
</svg>

<svg width="16" height="16" fill="none" xmlns="http://www.w3.org/2000/svg"><path fill-rule="evenodd" clip-rule="evenodd" d="M1.4 4.667A3.267 3.267 0 014.667 1.4h6.667A3.267 3.267 0 0114.6 4.667v6.666a3.267 3.267 0 01-3.266 3.267H4.667A3.267 3.267 0 011.4 11.333V4.667zM4.667 2.6A2.067 2.067 0 002.6 4.667v6.666c0 1.142.926 2.067 2.067 2.067h6.667a2.067 2.067 0 002.066-2.067V4.667A2.067 2.067 0 0011.334 2.6H4.667z" fill="#EC863D"/><path fill-rule="evenodd" clip-rule="evenodd" d="M6 5.267a.733.733 0 100 1.466.733.733 0 000-1.466zM4.066 6a1.933 1.933 0 113.867 0 1.933 1.933 0 01-3.867 0zm6.594 3.332a.733.733 0 00-1.042.105L9.17 9.08l.447.358-1.066 1.333A1.91 1.91 0 016 11.166a.71.71 0 00-.95.147l-1.916 2.395-.937-.75 1.916-2.394a1.91 1.91 0 012.552-.396.71.71 0 00.95-.148L8.68 8.687l.468.375-.468-.375a1.933 1.933 0 012.747-.277l2.955 2.463-.768.921-2.955-2.462.384-.461-.384.46z" fill="#EC863D"/></svg>
